lib/preview/nrk-logo-preview-nrk-sport-title-below-on-dark.svg

<svg width="42" height="35" viewBox="0 0 42 35" fill="none" xmlns="http://www.w3.org/2000/svg">
<path d="M0 13V1.00109H3.93719V13H0ZM9.29381 2.91078L11.5581 13H7.24917L4.54549 1.00109H6.96218C7.51635 0.993898 8.05406 1.18925 8.4745 1.55039C8.89562 1.89638 9.18495 2.3767 9.29381 2.91078ZM12.1495 13V1.00109H16.0867V13H12.1495ZM19.0605 5.5641C18.6362 5.56824 18.2188 5.45723 17.8525 5.24296C17.4912 5.03412 17.1911 4.73396 16.9823 4.3726C16.7678 4.00633 16.6568 3.58876 16.661 3.16432C16.6561 2.74246 16.7672 2.32738 16.9823 1.96443C17.1933 1.60699 17.4931 1.31009 17.8525 1.10252C18.2189 0.888502 18.6362 0.777515 19.0605 0.781384C19.4822 0.776842 19.8971 0.887929 20.2602 1.10252C20.616 1.31191 20.9127 1.60856 21.122 1.96443C21.3368 2.32748 21.4479 2.74249 21.4433 3.16432C21.4473 3.58873 21.3363 4.00623 21.122 4.3726C20.9149 4.73238 20.6179 5.03228 20.2602 5.24296C19.8971 5.45798 19.4819 5.56909 19.0599 5.5641H19.0605ZM22.0516 13V1.00109H25.9892V13H22.0516ZM30.9737 7.55823C30.9848 7.56988 31.0693 7.70788 31.2272 7.97227C31.3851 8.23666 31.5906 8.57468 31.8439 8.98629C32.0974 9.39771 32.3649 9.83426 32.6463 10.296C32.9278 10.7577 33.1926 11.1944 33.4408 11.6058C33.6881 12.0172 33.9697 12.4819 34.2857 13H29.9598C29.6893 12.5606 29.4441 12.1635 29.2245 11.8086C29.0048 11.4537 28.7713 11.0706 28.5238 10.6594C28.2758 10.2485 28.0306 9.84854 27.7882 9.45947C27.5458 9.07039 27.3375 8.72961 27.1633 8.43706C26.9883 8.14432 26.8671 7.94712 26.7997 7.84554C26.6325 7.59344 26.5336 7.30229 26.5127 7.00054C26.5294 6.71094 26.6226 6.43098 26.7828 6.18911C26.8504 6.07645 26.9743 5.87643 27.1545 5.58913C27.3348 5.30183 27.546 4.96105 27.7882 4.56672C28.0304 4.17239 28.2756 3.7696 28.5238 3.35837C28.772 2.94715 29.0056 2.56124 29.2245 2.20071C29.4445 1.84055 29.6897 1.44059 29.9598 1.00081H34.2857L30.9396 6.4595C30.8361 6.62157 30.7777 6.80835 30.7706 7.00054C30.7818 7.20232 30.8522 7.39632 30.9731 7.55823H30.9737Z" fill="white"/>
<path d="M7.36583 24.5385C7.11971 24.2877 6.834 24.0791 6.52015 23.9211C6.19125 23.7546 5.84899 23.616 5.49691 23.5067C5.13609 23.394 4.764 23.2981 4.38063 23.2189C4.08708 23.1515 3.8136 23.0839 3.56027 23.0163C3.32746 22.9561 3.10095 22.8739 2.88376 22.7707C2.69709 22.6823 2.52355 22.5685 2.36815 22.4325C2.22176 22.3035 2.10858 22.1411 2.03808 21.9592C1.96025 21.7451 1.92309 21.5185 1.92845 21.2908C1.92469 21.055 1.96176 20.8204 2.03808 20.5974C2.10751 20.4006 2.22356 20.2236 2.37634 20.0815C2.53466 19.9365 2.7144 19.8168 2.90915 19.7266C3.13195 19.625 3.36843 19.5566 3.61106 19.5236C3.89956 19.4825 4.19066 19.4627 4.48207 19.4644C4.74759 19.4649 5.01293 19.479 5.27703 19.5064C5.54412 19.5343 5.80951 19.5767 6.07198 19.6335C6.32689 19.6888 6.5782 19.7594 6.82461 19.845C7.05533 19.9243 7.27881 20.0233 7.49267 20.1407L7.72948 18.6526C7.48898 18.5271 7.23695 18.4251 6.97685 18.3481C6.71187 18.2694 6.44404 18.2016 6.17343 18.1449C5.89956 18.0883 5.62295 18.046 5.34468 18.0183C5.06278 17.9901 4.77524 17.976 4.48207 17.976C3.88397 17.9695 3.28738 18.0376 2.70613 18.1787C2.21115 18.2982 1.74341 18.5107 1.3277 18.8048C0.944718 19.0796 0.636576 19.4457 0.431304 19.87C0.212359 20.347 0.105302 20.8677 0.118373 21.3923C0.108688 21.7983 0.17463 22.2025 0.312863 22.5844C0.43419 22.9046 0.621525 23.1957 0.862609 23.4388C1.101 23.6768 1.37473 23.8765 1.67415 24.0308C1.99177 24.1944 2.3229 24.3303 2.66387 24.437C3.01906 24.5498 3.38273 24.6456 3.75483 24.7245C4.05928 24.792 4.34117 24.8625 4.60051 24.936C4.84176 25.0025 5.07665 25.0902 5.30242 25.1981C5.49649 25.2897 5.67597 25.4094 5.83517 25.5533C5.98625 25.6952 6.10456 25.8684 6.18189 26.0607C6.2715 26.2925 6.31459 26.5396 6.30873 26.788C6.31318 27.0521 6.27318 27.3151 6.19036 27.566C6.11615 27.783 6.00137 27.9839 5.8521 28.158C5.70202 28.3295 5.5176 28.4678 5.31082 28.5636C5.07706 28.6713 4.82932 28.7454 4.57484 28.7838C4.26435 28.8314 3.9505 28.8541 3.63639 28.8515C3.33101 28.8507 3.02598 28.8309 2.72306 28.7922C2.40734 28.7528 2.09166 28.6991 1.77594 28.6313C1.46476 28.565 1.15711 28.4832 0.854144 28.3861C0.555337 28.2908 0.270617 28.1922 0 28.0903L0.219885 29.7648C0.5082 29.8724 0.801703 29.9654 1.09935 30.0436C1.36958 30.1145 1.64345 30.171 1.91971 30.2127C2.18431 30.252 2.44924 30.283 2.71459 30.3057C2.97995 30.3285 3.24769 30.3397 3.51774 30.3396C4.12325 30.3433 4.72732 30.2809 5.31928 30.1535C5.84332 30.0436 6.34231 29.8372 6.79075 29.5446C7.20918 29.2677 7.54754 28.8856 7.77181 28.4368C8.01892 27.9051 8.13769 27.3229 8.11853 26.737C8.12772 26.3004 8.06187 25.8656 7.92397 25.4513C7.806 25.1103 7.61559 24.7989 7.36583 24.5385Z" fill="#F34531"/>
<path d="M16.6683 21.8746C16.0613 21.5029 15.3585 21.3177 14.6472 21.3418C14.225 21.3439 13.8047 21.3978 13.3956 21.5022C12.9535 21.6148 12.5273 21.7825 12.1271 22.0014C12.0476 22.0443 11.9686 22.0925 11.8903 22.1407V21.3587L10.1651 21.6294V33.7054H11.8903V29.9187C11.9018 29.9235 11.9126 29.9288 11.9241 29.9339C12.2366 30.0636 12.5629 30.1572 12.8966 30.213C13.2906 30.278 13.6895 30.3091 14.0888 30.306C14.8503 30.3191 15.6012 30.1262 16.2621 29.7476C16.9112 29.363 17.4387 28.8033 17.7843 28.1326C18.1838 27.333 18.3785 26.4467 18.3509 25.5533C18.3669 24.7978 18.2197 24.0479 17.9194 23.3545C17.655 22.7502 17.2203 22.2359 16.6683 21.8746ZM16.2202 27.5322C16.017 27.9813 15.6764 28.3543 15.2476 28.5975C14.7709 28.8472 14.2378 28.9697 13.7 28.9529C13.4423 28.9531 13.185 28.9332 12.9304 28.8934C12.6633 28.8509 12.4002 28.7859 12.1439 28.6992C12.0627 28.671 11.9748 28.6389 11.8903 28.6079V23.2702C11.9125 23.2598 11.9356 23.2463 11.9579 23.2361C12.2058 23.1234 12.4369 23.0274 12.6513 22.9483C12.8542 22.8725 13.0637 22.8159 13.2771 22.7792C13.4671 22.7465 13.6595 22.7295 13.8522 22.7284C14.3736 22.7111 14.891 22.8245 15.3573 23.0583C15.7651 23.2802 16.0845 23.6353 16.2621 24.0643C16.4772 24.6133 16.5779 25.2003 16.5581 25.7895C16.5761 26.3883 16.4606 26.9835 16.2202 27.5322Z" fill="#F34531"/>
<path d="M26.5966 21.883C25.8919 21.5085 25.1026 21.3221 24.3048 21.3418C23.4996 21.3233 22.7037 21.5157 21.9958 21.8999C21.3424 22.2656 20.808 22.8116 20.4566 23.4729C20.0749 24.2146 19.8859 25.0404 19.907 25.8743C19.8854 26.7018 20.0623 27.5224 20.4229 28.2676C20.7469 28.918 21.2637 29.4527 21.9028 29.7986C22.5908 30.1589 23.3589 30.3392 24.1354 30.3226C24.9482 30.3387 25.7517 30.1467 26.4694 29.7647C27.1396 29.3992 27.6892 28.8467 28.0512 28.1746C28.4438 27.4241 28.6388 26.586 28.6178 25.7393C28.6369 24.9327 28.4567 24.1339 28.0931 23.4137C27.7562 22.767 27.2355 22.2344 26.5966 21.883ZM26.4948 27.5491C26.3048 27.9885 25.9827 28.3579 25.5733 28.6062C25.1618 28.8416 24.6943 28.9614 24.2202 28.9529C23.7553 28.9644 23.2969 28.841 22.9007 28.5974C22.5087 28.337 22.2026 27.9663 22.0212 27.5321C21.791 26.9751 21.6815 26.3756 21.6998 25.7731C21.6798 25.1869 21.7896 24.6035 22.0212 24.0646C22.2109 23.641 22.5271 23.2865 22.9263 23.0497C23.3529 22.8148 23.8346 22.698 24.3215 22.7115C24.7016 22.702 25.0793 22.7741 25.4293 22.9229C25.7358 23.0613 26.0032 23.2735 26.2076 23.5405C26.4255 23.8306 26.5835 24.1613 26.6724 24.5131C26.7781 24.9246 26.8293 25.3482 26.8246 25.7731C26.8443 26.382 26.732 26.9879 26.4948 27.5491Z" fill="#F34531"/>
<path d="M34.2495 21.4684C33.9332 21.5534 33.6311 21.6845 33.353 21.8574C33.0646 22.0376 32.7979 22.2504 32.5581 22.4916C32.5181 22.5317 32.4794 22.5762 32.4397 22.6182V21.3587L30.7145 21.6124V30.1538H32.4397V23.7638C32.5678 23.6742 32.7005 23.5912 32.8372 23.5152C33.0064 23.4218 33.1816 23.3399 33.3617 23.2699C33.5363 23.2023 33.7139 23.1431 33.8943 23.0923C34.0799 23.0406 34.2694 23.0038 34.4609 22.9821C34.6659 22.9596 34.8723 22.954 35.0782 22.9655L35.2812 21.3753C34.9345 21.3507 34.5861 21.3821 34.2495 21.4684Z" fill="#F34531"/>
<path d="M41.5899 28.7415C41.5107 28.7584 41.4233 28.775 41.3275 28.7922L41.0402 28.8427C40.9479 28.8594 40.8548 28.8708 40.7612 28.8768C40.6706 28.8825 40.586 28.8853 40.5075 28.8853C40.2483 28.8922 39.9909 28.8401 39.7548 28.733C39.5519 28.6367 39.3836 28.4802 39.2728 28.2848C39.1543 28.0641 39.096 27.8161 39.1037 27.5657V22.8809H41.4885L41.6745 21.5278H39.1037V18.8558L37.3784 19.4647V21.5278H36.0761L35.8898 22.8809H37.3784V27.9212C37.3708 28.2574 37.4223 28.5923 37.5307 28.9106C37.6177 29.1624 37.7527 29.3949 37.9281 29.5953C38.0889 29.7741 38.2846 29.918 38.5032 30.0182C38.7268 30.1211 38.9625 30.1951 39.2048 30.2383C39.4448 30.2826 39.6882 30.3052 39.9321 30.306C40.1126 30.306 40.2902 30.3003 40.4652 30.2888C40.6401 30.2774 40.8009 30.2605 40.9473 30.2383C41.0936 30.2155 41.232 30.1901 41.3616 30.162C41.4913 30.1338 41.6009 30.109 41.6912 30.0861L41.7929 28.682C41.7271 28.7075 41.6591 28.7274 41.5899 28.7415Z" fill="#F34531"/>
</svg>

<svg xmlns="http://www.w3.org/2000/svg" viewBox="0 0 42 35"><path fill="#fff" d="M0 13V1.001h3.937V13H0ZM9.294 2.91 11.558 13H7.25L4.545 1.001h2.417a2.276 2.276 0 0 1 1.513.55c.42.345.71.826.819 1.36ZM12.149 13V1.001h3.938V13h-3.938Zm6.912-7.436a2.382 2.382 0 0 1-2.4-2.4 2.301 2.301 0 0 1 .321-1.2 2.41 2.41 0 0 1 3.278-.861c.356.209.653.506.862.861.215.363.326.778.321 1.2a2.35 2.35 0 0 1-.321 1.209 2.4 2.4 0 0 1-.862.87 2.302 2.302 0 0 1-1.2.321ZM22.05 13V1.001h3.938V13h-3.937Zm8.923-5.442c.01.012.095.15.253.414.158.265.364.603.617 1.014a314.643 314.643 0 0 1 1.597 2.62c.247.411.529.876.845 1.394H29.96c-.27-.44-.516-.836-.736-1.191-.22-.355-.453-.738-.7-1.15-.248-.41-.493-.81-.736-1.2-.242-.389-.45-.73-.625-1.022a17.98 17.98 0 0 0-.363-.591A1.747 1.747 0 0 1 26.513 7c.016-.29.11-.57.27-.812.067-.113.191-.313.371-.6s.392-.628.634-1.022c.242-.395.488-.797.736-1.209a516 516 0 0 1 .7-1.157L29.96 1h4.326L30.94 6.46a1.08 1.08 0 0 0-.17.54c.012.202.082.396.203.558Z"/><path fill="#F34531" d="M7.366 24.538a3.202 3.202 0 0 0-.846-.617 6.594 6.594 0 0 0-1.023-.414c-.36-.113-.733-.209-1.116-.288a24.168 24.168 0 0 1-.82-.203 3.783 3.783 0 0 1-.677-.245 2.236 2.236 0 0 1-.516-.338 1.217 1.217 0 0 1-.33-.474 1.83 1.83 0 0 1-.11-.668 2.04 2.04 0 0 1 .11-.694c.07-.196.186-.373.338-.516.159-.145.338-.264.533-.354.223-.102.46-.17.702-.203.289-.041.58-.061.871-.06a7.387 7.387 0 0 1 1.59.17c.255.055.506.125.753.211.23.08.454.178.668.296l.236-1.488a4.21 4.21 0 0 0-.752-.305 10.085 10.085 0 0 0-.804-.203 8.02 8.02 0 0 0-.828-.127 8.662 8.662 0 0 0-.863-.042 7.197 7.197 0 0 0-1.776.203 4.02 4.02 0 0 0-1.378.626c-.383.275-.691.64-.897 1.065a3.444 3.444 0 0 0-.313 1.522c-.01.406.057.81.195 1.192.121.32.309.612.55.855.238.238.512.438.811.592.318.163.649.3.99.406.355.113.719.209 1.09.287.305.068.587.139.847.212.24.067.476.154.701.262.194.092.374.211.533.355.151.142.27.315.347.508.09.232.133.479.127.727.004.264-.036.527-.119.778a1.809 1.809 0 0 1-.338.592 1.63 1.63 0 0 1-.541.406 2.733 2.733 0 0 1-.736.22c-.31.047-.625.07-.939.068-.305-.001-.61-.021-.913-.06-.316-.04-.631-.093-.947-.16a9.52 9.52 0 0 1-.922-.246A17.61 17.61 0 0 1 0 28.09l.22 1.675c.288.107.582.2.88.279.27.07.543.127.82.169.264.039.53.07.795.093.265.022.533.034.803.034a8.32 8.32 0 0 0 1.801-.186 4.312 4.312 0 0 0 1.472-.61c.418-.276.757-.658.98-1.107a3.743 3.743 0 0 0 .348-1.7 3.816 3.816 0 0 0-.195-1.286 2.499 2.499 0 0 0-.558-.913ZM16.668 21.875a3.635 3.635 0 0 0-2.02-.533 5.165 5.165 0 0 0-1.252.16 5.443 5.443 0 0 0-1.506.639v-.782l-1.725.27v12.076h1.725V29.92l.034.015c.313.13.639.223.973.279.394.065.793.096 1.192.093a4.226 4.226 0 0 0 2.173-.558 4.014 4.014 0 0 0 1.522-1.615c.4-.8.595-1.686.567-2.58a5.253 5.253 0 0 0-.432-2.198 3.395 3.395 0 0 0-1.25-1.48Zm-.448 5.657c-.203.45-.544.822-.972 1.066-.477.25-1.01.372-1.548.355a4.817 4.817 0 0 1-1.81-.345V23.27l.068-.034c.248-.113.479-.209.693-.288a3.467 3.467 0 0 1 1.201-.22 3.127 3.127 0 0 1 1.505.33c.408.222.727.577.905 1.006a4.33 4.33 0 0 1 .296 1.726 4.04 4.04 0 0 1-.338 1.742ZM26.597 21.883a4.64 4.64 0 0 0-2.292-.541 4.618 4.618 0 0 0-2.31.558 3.9 3.9 0 0 0-1.538 1.573 4.973 4.973 0 0 0-.55 2.401 5.184 5.184 0 0 0 .516 2.394c.324.65.84 1.185 1.48 1.53a4.6 4.6 0 0 0 2.232.525 4.767 4.767 0 0 0 2.334-.558 3.939 3.939 0 0 0 1.582-1.59c.393-.75.588-1.589.567-2.436a4.903 4.903 0 0 0-.525-2.325 3.696 3.696 0 0 0-1.496-1.531Zm-.102 5.666c-.19.44-.512.809-.922 1.057a2.63 2.63 0 0 1-1.353.347 2.406 2.406 0 0 1-1.32-.356 2.38 2.38 0 0 1-.879-1.065 4.266 4.266 0 0 1-.321-1.759c-.02-.586.09-1.17.321-1.708.19-.424.506-.779.905-1.015a2.736 2.736 0 0 1 1.396-.338c.38-.01.757.062 1.107.21.307.14.574.351.779.619.218.29.376.62.464.972.106.412.157.835.153 1.26a4.212 4.212 0 0 1-.33 1.776ZM34.25 21.468a3.34 3.34 0 0 0-.897.39c-.288.18-.555.392-.795.634-.04.04-.079.084-.118.126v-1.26l-1.725.254v8.542h1.725v-6.39a4.334 4.334 0 0 1 .922-.494c.174-.068.352-.127.532-.178a3.638 3.638 0 0 1 1.184-.127l.203-1.59a3.233 3.233 0 0 0-1.032.093ZM41.59 28.741c-.08.017-.167.034-.263.051l-.287.05a2.445 2.445 0 0 1-.279.035c-.09.006-.175.008-.254.008a1.712 1.712 0 0 1-.752-.152 1.093 1.093 0 0 1-.482-.448 1.427 1.427 0 0 1-.17-.72v-4.684h2.386l.186-1.353h-2.571v-2.672l-1.726.609v2.063h-1.302l-.186 1.353h1.488v5.04c-.007.336.044.671.153.99.087.251.222.484.397.684.16.18.357.323.575.423.224.103.46.177.702.22.24.045.483.067.727.068.18 0 .358-.006.533-.017a5.705 5.705 0 0 0 .897-.127c.13-.028.239-.053.33-.076l.1-1.404a1.256 1.256 0 0 1-.202.06Z"/></svg>
